assets/images/info.svg

<!-- Generated by IcoMoon.io -->
<svg version="1.1" xmlns="http://www.w3.org/2000/svg" width="32" height="32" viewBox="0 0 32 32">
<title>info</title>
<path d="M14 9.5c0-0.825 0.675-1.5 1.5-1.5h1c0.825 0 1.5 0.675 1.5 1.5v1c0 0.825-0.675 1.5-1.5 1.5h-1c-0.825 0-1.5-0.675-1.5-1.5v-1z"></path>
<path d="M20 24h-8v-2h2v-6h-2v-2h6v8h2z"></path>
<path d="M16 0c-8.837 0-16 7.163-16 16s7.163 16 16 16 16-7.163 16-16-7.163-16-16-16zM16 29c-7.18 0-13-5.82-13-13s5.82-13 13-13 13 5.82 13 13-5.82 13-13 13z"></path>
</svg>

<?xml version="1.0" encoding="utf-8"?>
<!-- Generator: Adobe Illustrator 16.0.0, SVG Export Plug-In . SVG Version: 6.00 Build 0)  -->
<!DOCTYPE svg PUBLIC "-//W3C//DTD SVG 1.1//EN" "http://www.w3.org/Graphics/SVG/1.1/DTD/svg11.dtd">
<svg version="1.1" id="Capa_1" xmlns="http://www.w3.org/2000/svg" xmlns:xlink="http://www.w3.org/1999/xlink" x="0px" y="0px"
	 width="32px" height="32px" viewBox="0 0 32 32" enable-background="new 0 0 32 32" xml:space="preserve">
<title>info</title>
<path fill="#FFFFFF" d="M14,9.5C14,8.675,14.675,8,15.5,8h1C17.325,8,18,8.675,18,9.5v1c0,0.825-0.675,1.5-1.5,1.5h-1
	c-0.825,0-1.5-0.675-1.5-1.5V9.5z"/>
<path fill="#FFFFFF" d="M20,24h-8v-2h2v-6h-2v-2h6v8h2V24z"/>
<path fill="#FFFFFF" d="M16,0C7.163,0,0,7.163,0,16s7.163,16,16,16s16-7.163,16-16S24.837,0,16,0z M16,29C8.82,29,3,23.18,3,16
	C3,8.82,8.82,3,16,3c7.18,0,13,5.82,13,13C29,23.18,23.18,29,16,29z"/>
</svg>
